assets/illustrations/multisize/48/html.svg

<svg id="6eaa89e4-c0b2-4755-bac6-d0e8e35eed89" data-name="ICONS" xmlns="http://www.w3.org/2000/svg" xmlns:xlink="http://www.w3.org/1999/xlink" viewBox="0 0 48 48"><defs><linearGradient id="63f715c9-1818-46af-9118-f31970385d3d" x1="34" y1="16.90625" x2="34" y2="14.08751" gradientUnits="userSpaceOnUse"><stop offset="0" stop-color="#828282" stop-opacity="0"/><stop offset="0.86247" stop-color="#303030" stop-opacity="0.06315"/><stop offset="1" stop-opacity="0.1"/></linearGradient><linearGradient id="076357e5-cd49-4791-9f99-d4b37d39b529" x1="27.27" y1="12.23" x2="33.23606" y2="6.26394" gradientUnits="userSpaceOnUse"><stop offset="0" stop-color="#fff" stop-opacity="0"/><stop offset="0.44604" stop-color="#fff" stop-opacity="0.00799"/><stop offset="0.63551" stop-color="#fff" stop-opacity="0.03616"/><stop offset="0.77636" stop-color="#fff" stop-opacity="0.08493"/><stop offset="0.8924" stop-color="#fff" stop-opacity="0.15385"/><stop offset="0.99328" stop-color="#fff" stop-opacity="0.24291"/><stop offset="1" stop-color="#fff" stop-opacity="0.25"/></linearGradient><linearGradient id="60d57ead-56fa-4797-b379-3de84dcbe2f1" x1="4.58668" y1="5.86411" x2="38.48928" y2="46.26765" gradientUnits="userSpaceOnUse"><stop offset="0" stop-color="#fff" stop-opacity="0"/><stop offset="0.86247" stop-color="#5e5e5e" stop-opacity="0.06315"/><stop offset="1" stop-opacity="0.1"/></linearGradient></defs><title>FileTypeIcons_Master_All_NEW</title><polygon points="39 44 9 44 9 4 30 4 39 13 39 44" fill="#fff"/><path d="M30.00049,3H8V45H40V13ZM30,4.5,38.5,13H30ZM39,44H9V4H29V14H39Z" fill="#949494"/><rect x="12" y="35" width="24" height="1" fill="#c8c8c8"/><rect x="12" y="38" width="24" height="1" fill="#c8c8c8"/><path d="M24,15a9,9,0,1,0,9,9A8.9999,8.9999,0,0,0,24,15Zm6.23535,4H27.74121a8.56382,8.56382,0,0,0-1.37207-2.6416A8.02218,8.02218,0,0,1,30.23535,19ZM27.5,24a15.59533,15.59533,0,0,1-.49463,4H20.99463a16.421,16.421,0,0,1,0-8h6.01074A15.59533,15.59533,0,0,1,27.5,24ZM24,32c-.96729,0-1.99609-1.1272-2.687-3h5.374C25.99609,30.8728,24.96729,32,24,32ZM21.313,19c.69092-1.8728,1.71972-3,2.687-3s1.99609,1.1272,2.687,3Zm.31787-2.6416A8.56382,8.56382,0,0,0,20.25879,19H17.76465A8.02218,8.02218,0,0,1,21.63086,16.3584ZM17.08252,20h2.89062a17.14488,17.14488,0,0,0,0,8H17.08252a7.93142,7.93142,0,0,1,0-8Zm.68213,9h2.49414a8.56382,8.56382,0,0,0,1.37207,2.6416A8.02218,8.02218,0,0,1,17.76465,29Zm8.60449,2.6416A8.56382,8.56382,0,0,0,27.74121,29h2.49414A8.02218,8.02218,0,0,1,26.36914,31.6416ZM30.91748,28H28.02686a17.14488,17.14488,0,0,0,0-8h2.89062a7.93142,7.93142,0,0,1,0,8Z" fill="#69afe5"/><rect x="29" y="14" width="10" height="3" fill="url(#63f715c9-1818-46af-9118-f31970385d3d)"/><polygon points="8 3 8 4 29 4 29 14 39 14 39 28 40 28 40 13 30 3 8 3" fill="url(#076357e5-cd49-4791-9f99-d4b37d39b529)"/><path d="M40,13,30,3H8V45H40Z" fill="url(#60d57ead-56fa-4797-b379-3de84dcbe2f1)"/></svg>

<?xml version="1.0" encoding="utf-8"?>
<!-- Generator: Adobe Illustrator 21.1.0, SVG Export Plug-In . SVG Version: 6.00 Build 0)  -->
<svg version="1.1" xmlns="http://www.w3.org/2000/svg" xmlns:xlink="http://www.w3.org/1999/xlink" x="0px" y="0px"
	 viewBox="0 0 48 48" enable-background="new 0 0 48 48" xml:space="preserve">
<g id="TEMPLATE" display="none">
	<g display="inline">
		<path fill="#D0D0D0" d="M48,0v48H0V0H48 M49-1h-1H0h-1v1v48v1h1h48h1v-1V0V-1L49-1z"/>
	</g>
	<g display="inline" opacity="0.1">
		<path fill="#FF3A6D" d="M45,3v42H3V3H45 M48,0H0v48h48V0L48,0z"/>
	</g>
</g>
<g id="ICONS">
	<g>
		<polygon fill="#FFFFFF" points="39,44 9,44 9,4 30,4 39,13 		"/>
		<path fill="#949494" d="M30.0005,3H8v42h32V13L30.0005,3z M30,4.5l8.5,8.5H30V4.5z M39,44H9V4h20v10h10V44z"/>
	</g>
	<rect x="12" y="35" fill="#C8C8C8" width="24" height="1"/>
	<rect x="12" y="38" fill="#C8C8C8" width="24" height="1"/>
	<g>
		<path fill="#69AFE5" d="M24,15c-4.9707,0-9,4.0294-9,9s4.0293,9,9,9s9-4.0294,9-9S28.9707,15,24,15z M30.2354,19h-2.4941
			c-0.3569-1.0659-0.8267-1.9636-1.3721-2.6416C27.9092,16.8369,29.248,17.7712,30.2354,19z M27.5,24
			c0,1.498-0.1875,2.8501-0.4946,4h-6.0107C20.6875,26.8501,20.5,25.498,20.5,24s0.1875-2.8501,0.4946-4h6.0107
			C27.3125,21.1499,27.5,22.502,27.5,24z M24,32c-0.9673,0-1.9961-1.1272-2.687-3h5.374C25.9961,30.8728,24.9673,32,24,32z
			 M21.313,19c0.6909-1.8728,1.7197-3,2.687-3s1.9961,1.1272,2.687,3H21.313z M21.6309,16.3584
			c-0.5454,0.678-1.0151,1.5757-1.3721,2.6416h-2.4941C18.752,17.7712,20.0908,16.8369,21.6309,16.3584z M17.0825,20h2.8906
			C19.6729,21.2062,19.5,22.5612,19.5,24s0.1729,2.7938,0.4731,4h-2.8906C16.3984,26.8217,16,25.4579,16,24
			S16.3984,21.1783,17.0825,20z M17.7646,29h2.4941c0.3569,1.0659,0.8267,1.9636,1.3721,2.6416
			C20.0908,31.1631,18.752,30.2288,17.7646,29z M26.3691,31.6416c0.5454-0.678,1.0151-1.5757,1.3721-2.6416h2.4941
			C29.248,30.2288,27.9092,31.1631,26.3691,31.6416z M30.9175,28h-2.8906c0.3003-1.2062,0.4731-2.5612,0.4731-4
			s-0.1729-2.7938-0.4731-4h2.8906C31.6016,21.1783,32,22.5421,32,24S31.6016,26.8217,30.9175,28z"/>
	</g>
	<linearGradient id="SVGID_1_" gradientUnits="userSpaceOnUse" x1="34" y1="16.9063" x2="34" y2="14.0875">
		<stop  offset="0" style="stop-color:#828282;stop-opacity:0"/>
		<stop  offset="0.2812" style="stop-color:#7F7F7F;stop-opacity:0.0281"/>
		<stop  offset="0.4503" style="stop-color:#777777;stop-opacity:0.045"/>
		<stop  offset="0.5899" style="stop-color:#696969;stop-opacity:0.059"/>
		<stop  offset="0.7133" style="stop-color:#545454;stop-opacity:0.0713"/>
		<stop  offset="0.8259" style="stop-color:#3A3A3A;stop-opacity:0.0826"/>
		<stop  offset="0.9294" style="stop-color:#1A1A1A;stop-opacity:0.0929"/>
		<stop  offset="1" style="stop-color:#000000;stop-opacity:0.1"/>
	</linearGradient>
	<rect x="29" y="14" fill="url(#SVGID_1_)" width="10" height="3"/>
	<linearGradient id="SVGID_2_" gradientUnits="userSpaceOnUse" x1="27.27" y1="12.23" x2="33.2361" y2="6.2639">
		<stop  offset="0" style="stop-color:#FFFFFF;stop-opacity:0"/>
		<stop  offset="0.8537" style="stop-color:#FFFFFF;stop-opacity:0.2134"/>
		<stop  offset="1" style="stop-color:#FFFFFF;stop-opacity:0.25"/>
	</linearGradient>
	<polygon fill="url(#SVGID_2_)" points="8,3 8,4 29,4 29,14 39,14 39,28 40,28 40,13 30,3 	"/>
	<linearGradient id="SVGID_3_" gradientUnits="userSpaceOnUse" x1="4.5867" y1="5.8641" x2="38.4893" y2="46.2676">
		<stop  offset="0" style="stop-color:#FFFFFF;stop-opacity:0"/>
		<stop  offset="0.2264" style="stop-color:#FCFCFC;stop-opacity:0.0226"/>
		<stop  offset="0.3626" style="stop-color:#F4F4F4;stop-opacity:0.0363"/>
		<stop  offset="0.475" style="stop-color:#E6E6E6;stop-opacity:0.0475"/>
		<stop  offset="0.5744" style="stop-color:#D1D1D1;stop-opacity:0.0574"/>
		<stop  offset="0.6652" style="stop-color:#B7B7B7;stop-opacity:0.0665"/>
		<stop  offset="0.7498" style="stop-color:#979797;stop-opacity:0.075"/>
		<stop  offset="0.8297" style="stop-color:#707070;stop-opacity:0.083"/>
		<stop  offset="0.9057" style="stop-color:#444444;stop-opacity:0.0906"/>
		<stop  offset="0.9761" style="stop-color:#121212;stop-opacity:0.0976"/>
		<stop  offset="1" style="stop-color:#000000;stop-opacity:0.1"/>
	</linearGradient>
	<path fill="url(#SVGID_3_)" d="M40,13L30,3H8v42h32V13z"/>
</g>
</svg>
